public/ccc-background.svg

<svg fill="none" version="1.1" viewBox="0 0 1024 3257" xmlns="http://www.w3.org/2000/svg"><g clip-path="url(#clip0)"><path d="M0 0h1024v3257H0z" fill="#fff"/><path d="m-13.445 2458c129.79 0 235-105.21 235-235s-105.21-235-235-235-235 105.21-235 235 105.21 235 235 235z" clip-rule="evenodd" fill="#88e7d9" fill-rule="evenodd"/><path d="m1069.7 2252 64.866 96.168-305.08 205.78-64.867-96.168zm-856-1716 64.866 96.168-305.08 205.78-64.867-96.168z" fill="#D8D8D8"/><g fill="#f77ecd"><path d="m1096.6 1552c-1.66-0.03-3.33-0.04-5-0.04-180.59 0-327 146.85-327 328s146.4 328 327 328c1.67 0 3.34-0.01 5-0.04v-208.79c-1.65 0.07-3.32 0.1-5 0.1-65.67 0-118.9-53.4-118.9-119.27s53.235-119.27 118.9-119.27c1.68 0 3.35 0.03 5 0.1v-208.79z" clip-rule="evenodd" fill-rule="evenodd"/><path d="M1096.55 1552.04h2.5v-2.47l-2.46-.03-.04 2.5zm0 655.92l.04 2.5 2.46-.03v-2.47h-2.5zm0-208.79h2.5v-2.61l-2.6.11.1 2.5zm0-238.34l-.1 2.5 2.6.11v-2.61h-2.5zm-5-206.33c1.66 0 3.31.01 4.97.04l.07-5c-1.68-.03-3.35-.04-5.04-.04v5zM767.055 1880c0-179.78 145.29-325.5 324.495-325.5v-5c-181.981 0-329.495 147.98-329.495 330.5h5zm324.495 325.5c-179.205 0-324.495-145.72-324.495-325.5h-5c0 182.52 147.514 330.5 329.495 330.5v-5zm4.97-.04c-1.66.03-3.31.04-4.97.04v5c1.69 0 3.36-.01 5.04-.04l-.07-5zm2.53 2.5v-208.79h-5v208.79h5zm-7.5-206.19c1.71 0 3.41-.03 5.11-.1l-.21-5c-1.62.07-3.26.1-4.9.1v5zM970.145 1880c0 67.25 54.345 121.77 121.405 121.77v-5c-64.28 0-116.405-52.27-116.405-116.77h-5zm121.405-121.77c-67.06 0-121.405 54.52-121.405 121.77h5c0-64.5 52.125-116.77 116.405-116.77v-5zm5.11.1c-1.7-.07-3.4-.1-5.11-.1v5c1.64 0 3.28.03 4.9.1l.21-5zm2.39 2.5v-208.79h-5v208.79h5z"/><path d="m473.52 355c0.025-1.664 0.038-3.331 0.038-5 0-180.6-146.85-327-328-327-181.15 0-328 146.4-328 327 0 1.669 0.012 3.336 0.037 5h208.79a120.63 120.63 0 0 1-0.103-5c0-65.672 53.4-118.91 119.27-118.91 65.872 0 119.27 53.237 119.27 118.91 0 1.675-0.034 3.341-0.103 5h208.79z" clip-rule="evenodd" fill-rule="evenodd"/><path d="m473.52 355v2.5h2.463l0.037-2.463-2.5-0.037zm-655.92 0-2.499 0.037 0.037 2.463h2.462v-2.5zm208.79 0v2.5h2.606l-0.108-2.604-2.497 0.104zm238.34 0-2.498-0.104-0.108 2.604h2.606v-2.5zm206.33-5c0 1.657-0.013 3.311-0.038 4.962l5 0.075c0.025-1.676 0.038-3.355 0.038-5.037h-5zm-325.5-324.5c179.78 0 325.5 145.29 325.5 324.5h5c0-181.98-147.98-329.5-330.5-329.5v5zm-325.5 324.5c0-179.21 145.72-324.5 325.5-324.5v-5c-182.52 0-330.5 147.51-330.5 329.5h5zm0.037 4.962a327.73 327.73 0 0 1-0.037-4.962h-5c0 1.682 0.012 3.361 0.038 5.037l4.999-0.075zm-2.5 2.538h208.79v-5h-208.79v5zm206.19-7.5c0 1.709 0.035 3.411 0.106 5.103l4.995-0.207a118.23 118.23 0 0 1-0.101-4.896h-5zm121.77-121.41c-67.246 0-121.77 54.349-121.77 121.41h5c0-64.284 52.274-116.41 116.77-116.41v-5zm121.77 121.41c0-67.06-54.526-121.41-121.77-121.41v5c64.499 0 116.77 52.125 116.77 116.41h5zm-0.105 5.103c0.07-1.692 0.105-3.394 0.105-5.103h-5c0 1.64-0.034 3.272-0.101 4.896l4.996 0.207zm-2.498 2.397h208.79v-5h-208.79v5z"/></g><g clip-rule="evenodd" fill-rule="evenodd"><path d="m805.56 709c129.79 0 235-105.21 235-235s-105.21-235-235-235-235 105.21-235 235 105.21 235 235 235z" fill="#88e7d9"/><path d="m93.437 1745.7-278.27-85.08 425.62-396.9 65.457 283.53 65.458 283.52-278.27-85.07z" fill="#bf77f2"/><path d="m61.555 2811c44.735 0 81-36.26 81-81s-36.265-81-81-81-81 36.26-81 81 36.265 81 81 81z" fill="#D8D8D8"/><path d="m914.26 2990.8-209.32 202.13-70.395-282.34-70.396-282.34 559.42 160.41-209.31 202.14z" fill="#bf77f2"/><path d="m971.56 1118c44.735 0 80.995-36.26 80.995-81 0-44.735-36.26-81-80.995-81s-81 36.265-81 81c0 44.74 36.265 81 81 81z" fill="#D8D8D8"/></g></g><defs><clipPath id="clip0"><path d="M0 0h1024v3257H0z" fill="#fff"/></clipPath></defs></svg>

<svg width="1024" height="3257" viewBox="0 0 1024 3257" fill="none" xmlns="http://www.w3.org/2000/svg">
<g clip-path="url(#clip0)">
<rect width="1024" height="3257" fill="white"/>
<path fill-rule="evenodd" clip-rule="evenodd" d="M-13.4453 2458C116.342 2458 221.555 2352.79 221.555 2223C221.555 2093.21 116.342 1988 -13.4453 1988C-143.232 1988 -248.445 2093.21 -248.445 2223C-248.445 2352.79 -143.232 2458 -13.4453 2458Z" fill="#FFD500"/>
<rect x="1069.66" y="2252.02" width="116" height="368" transform="rotate(56 1069.66 2252.02)" fill="#D8D8D8"/>
<rect x="213.664" y="536.024" width="116" height="368" transform="rotate(56 213.664 536.024)" fill="#D8D8D8"/>
<path fill-rule="evenodd" clip-rule="evenodd" d="M1096.55 1552.04C1094.89 1552.01 1093.22 1552 1091.55 1552C910.957 1552 764.555 1698.85 764.555 1880C764.555 2061.15 910.957 2208 1091.55 2208C1093.22 2208 1094.89 2207.99 1096.55 2207.96V1999.17C1094.9 1999.24 1093.23 1999.27 1091.55 1999.27C1025.88 1999.27 972.645 1945.87 972.645 1880C972.645 1814.13 1025.88 1760.73 1091.55 1760.73C1093.23 1760.73 1094.9 1760.76 1096.55 1760.83V1552.04Z" fill="#52B86A"/>
<path d="M1096.55 1552.04H1099.05V1549.57L1096.59 1549.54L1096.55 1552.04ZM1096.55 2207.96L1096.59 2210.46L1099.05 2210.43V2207.96H1096.55ZM1096.55 1999.17H1099.05V1996.56L1096.45 1996.67L1096.55 1999.17ZM1096.55 1760.83L1096.45 1763.33L1099.05 1763.44V1760.83H1096.55ZM1091.55 1554.5C1093.21 1554.5 1094.86 1554.51 1096.52 1554.54L1096.59 1549.54C1094.91 1549.51 1093.24 1549.5 1091.55 1549.5V1554.5ZM767.055 1880C767.055 1700.22 912.345 1554.5 1091.55 1554.5V1549.5C909.569 1549.5 762.055 1697.48 762.055 1880H767.055ZM1091.55 2205.5C912.345 2205.5 767.055 2059.78 767.055 1880H762.055C762.055 2062.52 909.569 2210.5 1091.55 2210.5V2205.5ZM1096.52 2205.46C1094.86 2205.49 1093.21 2205.5 1091.55 2205.5V2210.5C1093.24 2210.5 1094.91 2210.49 1096.59 2210.46L1096.52 2205.46ZM1099.05 2207.96V1999.17H1094.05V2207.96H1099.05ZM1091.55 2001.77C1093.26 2001.77 1094.96 2001.74 1096.66 2001.67L1096.45 1996.67C1094.83 1996.74 1093.19 1996.77 1091.55 1996.77V2001.77ZM970.145 1880C970.145 1947.25 1024.49 2001.77 1091.55 2001.77V1996.77C1027.27 1996.77 975.145 1944.5 975.145 1880H970.145ZM1091.55 1758.23C1024.49 1758.23 970.145 1812.75 970.145 1880H975.145C975.145 1815.5 1027.27 1763.23 1091.55 1763.23V1758.23ZM1096.66 1758.33C1094.96 1758.26 1093.26 1758.23 1091.55 1758.23V1763.23C1093.19 1763.23 1094.83 1763.26 1096.45 1763.33L1096.66 1758.33ZM1099.05 1760.83V1552.04H1094.05V1760.83H1099.05Z" fill="#52B86A"/>
<path fill-rule="evenodd" clip-rule="evenodd" d="M473.517 354.999C473.542 353.335 473.555 351.668 473.555 349.999C473.555 169.402 326.704 23 145.555 23C-35.5947 23 -182.445 169.402 -182.445 349.999C-182.445 351.668 -182.433 353.335 -182.408 354.999L26.3855 354.999C26.3167 353.34 26.282 351.674 26.282 349.999C26.282 284.327 79.6822 231.09 145.555 231.09C211.427 231.09 264.827 284.327 264.827 349.999C264.827 351.674 264.793 353.34 264.724 354.999L473.517 354.999Z" fill="#52B86A"/>
<path d="M473.517 354.999V357.499H475.98L476.017 355.036L473.517 354.999ZM-182.408 354.999L-184.907 355.036L-184.87 357.499H-182.408V354.999ZM26.3855 354.999V357.499H28.9914L28.8833 354.895L26.3855 354.999ZM264.724 354.999L262.226 354.895L262.118 357.499H264.724V354.999ZM471.055 349.999C471.055 351.656 471.042 353.31 471.017 354.961L476.017 355.036C476.042 353.36 476.055 351.681 476.055 349.999H471.055ZM145.555 25.5C325.331 25.5 471.055 170.79 471.055 349.999H476.055C476.055 168.014 328.078 20.5 145.555 20.5V25.5ZM-179.945 349.999C-179.945 170.79 -34.2212 25.5 145.555 25.5V20.5C-36.9682 20.5 -184.945 168.014 -184.945 349.999H-179.945ZM-179.908 354.961C-179.933 353.31 -179.945 351.656 -179.945 349.999H-184.945C-184.945 351.681 -184.933 353.36 -184.907 355.036L-179.908 354.961ZM-182.408 357.499L26.3855 357.499V352.499L-182.408 352.499V357.499ZM23.782 349.999C23.782 351.708 23.8174 353.41 23.8876 355.102L28.8833 354.895C28.816 353.271 28.782 351.639 28.782 349.999H23.782ZM145.555 228.59C78.3087 228.59 23.782 282.939 23.782 349.999H28.782C28.782 285.715 81.0557 233.59 145.555 233.59V228.59ZM267.327 349.999C267.327 282.939 212.801 228.59 145.555 228.59V233.59C210.054 233.59 262.327 285.715 262.327 349.999H267.327ZM267.222 355.102C267.292 353.41 267.327 351.708 267.327 349.999H262.327C262.327 351.639 262.293 353.271 262.226 354.895L267.222 355.102ZM264.724 357.499L473.517 357.499V352.499L264.724 352.499V357.499Z" fill="#52B86A"/>
<path fill-rule="evenodd" clip-rule="evenodd" d="M805.555 709C935.342 709 1040.55 603.787 1040.55 474C1040.55 344.213 935.342 239 805.555 239C675.768 239 570.555 344.213 570.555 474C570.555 603.787 675.768 709 805.555 709Z" fill="#FFD500"/>
<path fill-rule="evenodd" clip-rule="evenodd" d="M93.4367 1745.66L-184.833 1660.58L27.9794 1462.13L240.792 1263.68L306.249 1547.21L371.707 1830.73L93.4367 1745.66Z" fill="#FD825B"/>
<path fill-rule="evenodd" clip-rule="evenodd" d="M61.5547 2811C106.29 2811 142.555 2774.74 142.555 2730C142.555 2685.26 106.29 2649 61.5547 2649C16.8196 2649 -19.4453 2685.26 -19.4453 2730C-19.4453 2774.74 16.8196 2811 61.5547 2811Z" fill="#D8D8D8"/>
<path fill-rule="evenodd" clip-rule="evenodd" d="M914.257 2990.85L704.94 3192.98L634.545 2910.64L564.149 2628.3L843.862 2708.51L1123.57 2788.71L914.257 2990.85Z" fill="#FD825B"/>
<path fill-rule="evenodd" clip-rule="evenodd" d="M971.555 1118C1016.29 1118 1052.55 1081.74 1052.55 1037C1052.55 992.265 1016.29 956 971.555 956C926.82 956 890.555 992.265 890.555 1037C890.555 1081.74 926.82 1118 971.555 1118Z" fill="#D8D8D8"/>
</g>
<defs>
<clipPath id="clip0">
<rect width="1024" height="3257" fill="white"/>
</clipPath>
</defs>
</svg>
